X: 3056
Q:"Reel."
M: C
L: 1/8
K: G
uD2 |\
dedB cBAG | FGAG FDEF |\
bagf gfed | ^cdef g2 |:\
(fg) |\
afdf gfed | ^cABc defg |\
afdf gfed | ^cABc d2 :|


